flaticon/productivity-and-development/flag-1.svg

<svg xmlns="http://www.w3.org/2000/svg" width="32" height="32" viewBox="0 0 24 24">
    <path d="M 16.726562 3.257812 C 16.488281 2.191406 15.382812 1.382812 14.058594 1.382812 C 13.125 1.382812 12.121094 1.960938 11.785156 2.113281 C 9.5625 3.136719 7.261719 4.195312 5.0625 4.195312 C 3.597656 4.195312 2.277344 3.730469 1.019531 2.78125 L 1.019531 0.253906 L 0 0.253906 L 0 23.746094 L 1.019531 23.746094 L 1.019531 14.875 C 2.277344 15.671875 3.609375 16.0625 5.0625 16.0625 C 5.8125 16.0625 6.5625 15.957031 7.308594 15.777344 C 7.457031 16.300781 7.8125 16.761719 8.328125 17.09375 C 8.839844 17.425781 9.441406 17.59375 10.050781 17.59375 C 11.035156 17.59375 12.214844 16.933594 12.214844 16.933594 C 15.613281 15.265625 17.441406 14.882812 19.28125 14.882812 C 21.625 14.882812 24 17.078125 24 17.078125 L 24 4.917969 C 24 4.917969 21.027344 2.03125 16.726562 3.257812 Z M 1.019531 13.628906 L 1.019531 4.027344 C 2.277344 4.824219 3.609375 5.214844 5.0625 5.214844 C 7.484375 5.214844 9.890625 4.109375 12.214844 3.039062 C 12.542969 2.886719 13.363281 2.40625 14.058594 2.40625 C 14.878906 2.40625 15.753906 2.921875 15.753906 3.6875 L 15.753906 11.328125 C 14.417969 11.75 13.082031 12.363281 11.785156 12.960938 C 9.5625 13.984375 7.261719 15.042969 5.0625 15.042969 C 3.597656 15.042969 2.277344 14.582031 1.019531 13.628906 Z M 22.980469 15.019531 C 19.183594 12.597656 15.429688 14.328125 11.785156 16.003906 C 11.785156 16.003906 10.050781 17.066406 8.882812 16.238281 C 8.695312 16.105469 8.398438 15.875 8.289062 15.503906 C 9.617188 15.082031 10.949219 14.53125 12.214844 13.886719 C 14.058594 12.953125 16.777344 12.09375 16.777344 12.09375 L 16.777344 4.296875 C 19.21875 3.675781 21.148438 4.023438 22.980469 5.414062 Z M 22.980469 15.019531"/>
</svg>

<svg xmlns="http://www.w3.org/2000/svg" width="32" height="32" viewBox="0 0 24 24">
    <path d="M16.727 3.258c-.239-1.067-1.344-1.875-2.668-1.875-.934 0-1.938.578-2.274.73-2.223 1.024-4.523 2.082-6.723 2.082-1.464 0-2.785-.465-4.042-1.414V.254H0v23.492h1.02v-8.871c1.257.797 2.59 1.188 4.043 1.188.75 0 1.5-.106 2.246-.286.148.524.503.985 1.02 1.317.51.332 1.112.5 1.722.5.984 0 2.164-.66 2.164-.66 3.398-1.668 5.226-2.051 7.066-2.051 2.344 0 4.719 2.195 4.719 2.195V4.918s-2.973-2.887-7.273-1.66zM1.02 13.628v-9.6c1.257.796 2.59 1.187 4.043 1.187 2.421 0 4.828-1.106 7.152-2.176.328-.152 1.148-.633 1.844-.633.82 0 1.695.516 1.695 1.281v7.641c-1.336.422-2.672 1.035-3.969 1.633-2.223 1.023-4.523 2.082-6.723 2.082-1.464 0-2.785-.461-4.042-1.414zm21.96 1.392c-3.796-2.422-7.55-.692-11.195.984 0 0-1.734 1.062-2.902.234-.188-.133-.485-.363-.594-.734a26.205 26.205 0 0 0 3.926-1.617c1.844-.934 4.562-1.793 4.562-1.793V4.297c2.442-.621 4.371-.274 6.203 1.117zm0 0"/>
</svg>
